X: 2141
T: Sir John Lockhart Ross's Reel.
%R: reel
B: Niel Gow & Sons "Complete Repository" v.2 p.14 #1
Z: 2021 John Chambers <jc:trillian.mit.edu>
M: C
L: 1/8
K: Gm
% - - - - - - - - - -
V: 1 staves=2
D |\
(GAB)c (B/c/d) TcB | AfcB AFcA |\
GABc (B/c/d) Tc>B | AFc>A G/G/G G :|\
A |\
Gg-ga (g/a/b) .a.g | Tf=efg afcf |
Tdcdg bagf | cAfA G/G/G GA ||\
Ggga (g/a/b) ag | Tf=ef.g afcf |\
(b/a/g) (a/g/^f) (g/=f/=e) fd | c<Af>A G/G/G G |]
% - - - - - - - - - -
% Voice 2 preserves the staff layout in the book.
V: 2 clef=bass middle=d
z |\
[g2G2][g2G2] [g2G2][g2G2] | [f2F2][f2F2] [f2F2][f2F2] |\
[g2G2][g2G2] [g2G2][g2G2] | [d2D2][^f2^F2] [g2G2][gG] :|\
z |\
[g2G2][g2G2] [g2G2][g2G2] | [f2F2][f2F2] [f2F2][f2F2] |
[g2G2][g2G2] [b2B2][d'2d2] | [d'2d2][d'2d2] [g2G2][g2G2] ||\
[g2G2][g2G2] [g2G2][g2G2] | [f2F2][f2F2] [f2F2][f2F2] |\
[g2G2][a2A2] [b2B2][b2B2] | [d'2d2][d'2d2] [g2G2][gG] |]


